X:1
T:I Never Will Marry
M:3/4
L:1/4
K:G
 G| G BA/2-G/2| A A2-| A z G| G B d| c3-| c z c| c ed/2-c/2| B d2-|\
 d z G/2G/2| F G A| G3-| G z||
